dist/img/logo/youtube.svg

<svg width="31" height="31" viewBox="0 0 31 31" fill="none" xmlns="http://www.w3.org/2000/svg">
<path fill-rule="evenodd" clip-rule="evenodd" d="M30.4426 15.2213C30.4426 23.6278 23.6278 30.4426 15.2213 30.4426C6.8148 30.4426 0 23.6278 0 15.2213C0 6.8148 6.8148 0 15.2213 0C23.6278 0 30.4426 6.8148 30.4426 15.2213ZM22.303 10.4197C22.9883 11.105 23.3733 12.0345 23.3733 13.0037V17.3556C23.3733 17.8355 23.2788 18.3107 23.0951 18.7541C22.9115 19.1975 22.6423 19.6003 22.303 19.9397C21.9636 20.279 21.5608 20.5482 21.1174 20.7318C20.6741 20.9155 20.1989 21.01 19.719 21.01H10.3488C9.86891 21.01 9.39372 20.9155 8.95035 20.7318C8.50698 20.5482 8.10413 20.279 7.76479 19.9397C7.42545 19.6003 7.15627 19.1975 6.97263 18.7541C6.78898 18.3107 6.69446 17.8355 6.69446 17.3556V13.0037C6.69446 12.0345 7.07947 11.105 7.76479 10.4197C8.45012 9.73437 9.37961 9.34936 10.3488 9.34936H19.719C20.6882 9.34936 21.6177 9.73437 22.303 10.4197ZM13.7117 17.6055L17.8762 15.5233C18.0427 15.4191 17.8658 15.1693 17.7304 15.0964L13.7117 12.91C13.5555 12.8163 12.9933 12.9413 12.9933 13.1287V17.3869C12.9933 17.6055 13.5451 17.6888 13.7117 17.6055Z" fill="white"/>
</svg>

<svg width="31" height="31" viewBox="0 0 31 31" fill="none" xmlns="http://www.w3.org/2000/svg"><path fill-rule="evenodd" clip-rule="evenodd" d="M30.443 15.221c0 8.407-6.815 15.222-15.222 15.222C6.815 30.443 0 23.628 0 15.22 0 6.815 6.815 0 15.221 0c8.407 0 15.222 6.815 15.222 15.221zm-8.14-4.801a3.654 3.654 0 011.07 2.584v4.352a3.654 3.654 0 01-3.654 3.654h-9.37a3.653 3.653 0 01-3.655-3.654v-4.352a3.654 3.654 0 013.655-3.655h9.37c.97 0 1.899.385 2.584 1.07zm-8.591 7.185l4.164-2.082c.167-.104-.01-.354-.146-.427l-4.018-2.186c-.156-.094-.719.031-.719.219v4.258c0 .218.552.302.719.218z" fill="#fff"/></svg>
